X:1
T:Hymn
T:W. Peterson-Berger (1867-1942)
T:Hymn
T:©CPDL Edition may be freely distributed, duplicated, performed and recorded PA Aglert
T:©CPDL Edition may be freely distributed, duplicated, performed and recorded PA Aglert
T:©CPDL Edition may be freely distributed, duplicated, performed and recorded PA Aglert
C:W. Peterson-Berger (1867-1942)
Z:©CPDL Edition may be freely distributed, duplicated, performed and recorded
Z:PA Aglert
%%score [ 1 2 3 4 ]
L:1/8
Q:1/4=90
M:4/4
K:Bb
V:1 treble nm="Soprano"
V:2 treble nm="Alto"
V:3 treble-8 nm="Tenor"
V:4 bass nm="Bass"
V:1
"^Andante maestoso"!f! F3 F | f3 B c2 B2 | F4 F4 | F3 F B2 F2 | G3 G d2 B2 | (c4 d2) c2 | %6
w: Him- lars|rymd sin ko- nung|ä- rar,|him- lars hä- rar|pri- sa den, dem|vä- * sen|
 f6!mf! FF |!<(! G3!<)! A B2 c2 |!>(! d2 B2!>)! z2 BB |!<(! A3!<)! B c2 e2 | d2 D2 z4 | %11
w: gett. Fäs- tet|ska- parns namn för-|kun- nar. Fäs- tet|ska- parns namn för-|kun- nar.|
!p! (B4 A2) G2 |!<(! F2 F2!<)! G2 A2 | B3 G =B3 G |!f!!>(! c8!>)! |!mf! e>e d!>(!c B2!>)! G2 | %16
w: Stjär- * ne-|mun- nar sju- nga|u- tan vi- la|det,|sju- nga u- tan vi- la|
!p! !fermata!F4!mf! F3 F | B3 B c2 d2 | F4 F4 |!<(! F3 F!<)! B2 d2 |!f! (f4 e2) d2 | c2 B2 A2 G2 | %22
w: det. Him- lars|rymd sin ko- nung|ä- rar,|him- lars hä- rar|pri- * sa|den, dem vä- sen|
 B6!<(! F>!<)!D |!ff! E4 e4 | f6 f2 | !fermata!B4 z4 |] %26
w: gett, pri- sa|den, dem|vä- sen|gett.|
V:2
!f! F3 F | F3 F F2 F2 | (F4 F2) E2 | D3 D F2 D2 | D3 G G2 G2 | B6 B2 | A6!mf! FF | %7
w: Him- lars|rymd sin ko- nung|ä- * rar,|him- lars hä- rar|pri- sa den, dem|vä- sen|gett. Fäs- tet|
!<(! E3!<)! F G2 A2 |!>(! B2!>)! B2 z2 BB |!<(! F3!<)! G A2 G2 | ^F2 D2 z4 |!p! (G4 =E2) E2 | %12
w: ska- parns namn för-|kun- nar. Fäs- tet|ska- parns namn för-|kun- nar.|Stjär- * ne-|
!<(! F2 F2!<)! F2 F2 | G3 G F3 F |!f!!>(! (=E4 _E4)!>)! |!mf! G>G F!>(!E E2!>)! E2 | %16
w: mun- nar sju- nga|u- tan vi- la|det, _|sju- nga u- tan vi- la|
!p! !fermata!E4!mf! E3 E | D3 F F2 F2 | (F4 F2) E2 | D3!<(! D!<)! F2 _A2 |!f! G8- | (G4 C2) ^C2 | %22
w: det. Him- lars|rymd sin ko- nung|ä- * rar,|him- lars hä- rar|pri-|* * sa|
 D6!<(! D>D!<)! |!ff! E4 B4 | B4 A4 | !fermata!F4 z4 |] %26
w: den, pri- sa|den, dem|vä- sen|gett.|
V:3
!f! F3 F | d3 d e2 d2 | c4 c4 | B3 B d2 B2 | B3 B B2 d2 | (=e4 f2) e2 | c6!mf! ff | %7
w: Him- lars|rymd sin ko- nung|ä- rar,|him- lars hä- rar|pri- sa den, dem|vä- * sen|gett. Fäs- tet|
!<(! !courtesy!_e3!<)! e e2 e2 |!>(! d2 d2!>)! z2 dd |!<(! f3!<)! f f2 c2 | A2 d2 z4 | %11
w: ska- parns namn för-|kun- nar. Fäs- tet|ska- parns namn för-|kun- nar.|
!p! (d4 ^c2) c2 |!<(! d2 d2!<)! d2 d2 | d3 d d3 d |!f!!>(! !courtesy!_B8!>)! | %15
w: Stjär- * ne-|mun- nar sju- nga|u- tan vi- la|det,|
!mf! A>A A!>(!A G2!>)! B2 |!p! !fermata!A4!mf! F3 F | f3 d e2 f2 | c4 c4 |!<(! B3 B!<)! d2 B2 | %20
w: sju- nga u- tan vi- la|det. Him- lars|rymd sin ko- nung|ä- rar,|him- lars hä- rar|
!f! (B8 | c6) B2 | B6!<(! B>!<)!B |!ff! B4 e4 | c6 e2 | !fermata!d4 z4 |] %26
w: pri-|* sa|den, pri- sa|den, dem|vä- sen|gett.|
V:4
!f! F,3 F, | B,,3 B, B,2 B,2 | (B,2 A,2 G,2) A,2 | B,3 B, B,2 B,2 | G,3 G, G,2 G,2 | G,6 C2 | %6
w: Him- lars|rymd sin ko- nung|ä- * * rar,|him- lars hä- rar|pri- sa den, dem|vä- sen|
 F,6 z2 | z4 z2!f! CC | G,3 A, B,2 D,2 | F,2 F,,2 z2 C,C, | D,3 C,!>(! B,,2!>)! A,,2 | %11
w: gett.|Fäs- tet|ska- parns namn för-|kun- nar. Fäs- tet|ska- parns namn för-|
!p! G,,3 G,, A,,2 A,,2 |!<(! D,2 (DC)!<)! B,2 A,2 | G,3 G, G,3 G, |!f!!>(! (G,4 _G,4)!>)! | %15
w: kun- nar. Stjär- ne-|mun- nar _ sju- nga|u- tan vi- la|det, _|
!mf! F,>F, F,!>(!F, F,2!>)! F,2 |!p! !fermata!F,4!mf! F,3 F, | B,,3 B, B,2 B,2 | %18
w: sju- nga u- tan vi- la|det. Him- lars|rymd sin ko- nung|
 (B,2 A,2 G,2) A,2 |!<(! B,3 B,!<)! B,2 B,2 |!f! E,8 | =E,8 | F,6!<(! F,>!<)!F, |!ff! G,4 G,4 | %24
w: ä- * * rar,|him- lars hä- rar|pri-|sa|den, pri- sa|den, dem|
 F,6 F,2 | !fermata!B,4 z4 |] %26
w: vä- sen|gett.|

